src/16/panel/scudcloud.svg

<svg xmlns="http://www.w3.org/2000/svg" width="16" height="16" version="1.1">
 <defs>
  <style id="current-color-scheme" type="text/css">
   .ColorScheme-Text { color:#dfdfdf; } .ColorScheme-Highlight { color:#4285f4; }
  </style>
 </defs>
 <path style="fill:currentColor" class="ColorScheme-Text" d="M 7.5 1 C 5.1951914 1.0006747 3.2634741 2.7426773 3.0253906 5.0351562 C 1.2930256 5.272259 0.00141275 6.7514852 0 8.5 C 0 10.268313 1.3162424 11.714889 3.0195312 11.951172 C 2.887552 12.49323 2.2864355 13.509669 2.0898438 13.982422 C 1.8310327 14.603196 2.8677595 15.134407 3.5292969 14.976562 C 5.1491843 14.59038 6.8595692 13.121252 8.0058594 12 L 11.023438 12 C 13.232577 12 15.023438 10.209139 15.023438 8 C 15.022496 6.0755601 13.651319 4.4245671 11.759766 4.0703125 C 11.146036 2.2386512 9.4317448 1.003041 7.5 1 z M 8 8 L 11 8 C 11.554001 8 12 8.4460001 12 9 C 12 9.5539999 11.554001 10 11 10 L 8 10 C 7.4460001 10 7 9.5539999 7 9 C 7 8.4460001 7.4460001 8 8 8 z"/>
</svg>

<svg xmlns="http://www.w3.org/2000/svg" width="16" height="16"><defs><style id="current-color-scheme" type="text/css"></style></defs><path d="M7.5 1a4.5 4.5 0 0 0-4.475 4.035A3.5 3.5 0 0 0 0 8.5a3.49 3.49 0 0 0 3.02 3.451c-.132.542-.734 1.559-.93 2.031-.259.621.778 1.152 1.44.995C5.15 14.59 6.86 13.12 8.005 12h3.017a4 4 0 0 0 .737-7.93A4.5 4.5 0 0 0 7.5 1zM8 8h3c.554 0 1 .446 1 1s-.446 1-1 1H8c-.554 0-1-.446-1-1s.446-1 1-1z" fill="currentColor" color="#bebebe"/></svg>
